static/icons/trashbin.svg

<?xml version="1.0" encoding="UTF-8" standalone="no"?>
<!DOCTYPE svg PUBLIC "-//W3C//DTD SVG 1.1//EN" "http://www.w3.org/Graphics/SVG/1.1/DTD/svg11.dtd">
<svg version="1.1" xmlns="http://www.w3.org/2000/svg" xmlns:xlink="http://www.w3.org/1999/xlink" preserveAspectRatio="xMidYMid meet" viewBox="0 0 703 651" width="703" height="651"><defs><path d="M527.79 205.39L526.49 222.19L525.23 238.61L524 254.65L522.8 270.33L521.63 285.63L520.5 300.56L519.39 315.11L518.31 329.29L517.27 343.1L516.26 356.54L515.27 369.6L514.32 382.29L513.4 394.61L512.51 406.55L511.65 418.12L510.82 429.32L510.02 440.14L509.25 450.6L508.52 460.67L507.81 470.38L507.14 479.71L506.49 488.67L505.88 497.26L505.3 505.47L504.75 513.31L504.23 520.78L503.74 527.87L503.28 534.6L502.86 540.94L502.46 546.92L502.09 552.52L501.76 557.75L501.45 562.61L501.18 567.09L500.94 571.2L500.73 574.94L500.55 578.3L500.4 581.29L500.28 583.91L500.16 586.31L500 588.66L499.8 590.95L499.56 593.17L499.28 595.34L498.97 597.46L498.61 599.51L498.22 601.51L497.79 603.45L497.32 605.33L496.81 607.15L496.27 608.91L495.68 610.62L495.06 612.27L494.39 613.86L493.69 615.39L492.95 616.86L492.17 618.28L491.36 619.64L490.5 620.94L489.61 622.18L488.67 623.36L487.7 624.49L486.69 625.56L485.64 626.57L484.55 627.52L483.43 628.41L482.26 629.25L481.06 630.03L479.82 630.75L478.54 631.41L477.22 632.01L475.86 632.56L474.46 633.05L473.03 633.48L471.56 633.85L470.04 634.16L468.49 634.42L466.9 634.61L465.28 634.75L146.44 634.75L144.82 634.61L143.23 634.42L141.68 634.16L140.16 633.85L138.69 633.48L137.26 633.05L135.86 632.56L134.5 632.01L133.18 631.41L131.9 630.75L130.66 630.03L129.46 629.25L128.29 628.41L127.17 627.52L126.08 626.57L125.03 625.56L124.02 624.49L123.05 623.36L122.11 622.18L121.22 620.94L120.36 619.64L119.55 618.28L118.77 616.86L118.03 615.39L117.33 613.86L116.66 612.27L116.04 610.62L115.45 608.91L114.91 607.15L114.4 605.33L113.93 603.45L113.5 601.51L113.11 599.51L112.75 597.46L112.44 595.34L112.16 593.17L111.92 590.95L111.72 588.66L111.56 586.31L111.44 583.91L111.32 581.29L111.17 578.3L110.99 574.94L110.78 571.2L110.54 567.09L110.27 562.61L109.96 557.75L109.63 552.52L109.26 546.92L108.87 540.94L108.44 534.6L107.98 527.87L107.49 520.78L106.97 513.31L106.42 505.47L105.84 497.26L105.23 488.67L104.58 479.71L103.91 470.38L103.2 460.67L102.47 450.6L101.7 440.14L100.9 429.32L100.07 418.12L99.21 406.55L98.32 394.61L97.4 382.29L96.45 369.6L95.47 356.54L94.45 343.1L93.41 329.29L92.33 315.11L91.22 300.56L90.09 285.63L88.92 270.33L87.72 254.65L86.49 238.61L85.23 222.19L83.93 205.39L82.61 188.23L529.11 188.23L527.79 205.39ZM201.24 549.99L232.13 549.99L217.72 235.56L186.83 235.56L201.24 549.99ZM383.96 549.99L414.85 549.99L429.27 235.56L398.38 235.56L383.96 549.99ZM293.57 549.99L326.51 549.99L326.51 235.56L293.57 235.56L293.57 549.99Z" id="a2zSwrHOtJ"></path><path d="M182.23 140.44L182.23 101.64L182.23 101.15L182.24 100.66L182.25 100.17L182.27 99.68L182.29 99.19L182.32 98.7L182.35 98.21L182.38 97.73L182.43 97.24L182.47 96.76L182.52 96.27L182.58 95.78L182.64 95.3L182.7 94.82L182.77 94.33L182.85 93.85L182.93 93.37L183.01 92.89L183.1 92.41L183.2 91.93L183.29 91.46L183.4 90.98L183.51 90.5L183.62 90.03L183.74 89.56L183.86 89.09L183.99 88.61L184.12 88.14L184.25 87.68L184.4 87.21L184.54 86.74L184.69 86.28L184.85 85.82L185.01 85.35L185.17 84.89L185.34 84.43L185.51 83.98L185.69 83.52L185.87 83.07L186.06 82.61L186.81 80.89L187.58 79.22L188.38 77.58L189.21 76L190.07 74.45L190.96 72.96L191.87 71.5L192.81 70.1L193.78 68.73L194.78 67.41L195.81 66.14L196.86 64.91L197.94 63.73L199.05 62.59L200.19 61.49L201.35 60.44L202.55 59.44L203.77 58.48L205.02 57.56L206.29 56.69L207.6 55.87L208.93 55.09L210.29 54.35L211.68 53.66L213.09 53.02L214.54 52.41L216.01 51.86L217.51 51.35L219.04 50.88L220.59 50.46L222.18 50.08L223.79 49.75L225.43 49.46L227.09 49.22L228.79 49.02L230.51 48.87L232.26 48.76L234.04 48.7L235.85 48.68L237.68 48.7L239.86 48.76L242.1 48.81L244.39 48.86L246.73 48.91L249.13 48.96L251.59 49.01L254.1 49.05L256.67 49.09L259.3 49.13L261.97 49.17L264.71 49.21L267.5 49.24L270.34 49.27L273.25 49.3L276.2 49.33L279.21 49.36L282.28 49.38L285.4 49.4L288.58 49.42L291.82 49.44L295.11 49.46L298.45 49.47L301.85 49.48L305.31 49.49L305.86 49.49L306.41 49.49L309.87 49.48L313.27 49.47L316.61 49.46L319.9 49.44L323.14 49.42L326.32 49.4L329.44 49.38L332.51 49.36L335.52 49.33L338.48 49.3L341.38 49.27L344.22 49.24L347.01 49.21L349.75 49.17L352.43 49.13L355.05 49.09L357.62 49.05L360.13 49.01L362.59 48.96L364.99 48.91L367.33 48.86L369.62 48.81L371.86 48.76L374.04 48.7L375.87 48.68L377.68 48.7L379.46 48.76L381.21 48.87L382.93 49.02L384.63 49.22L386.29 49.46L387.93 49.75L389.54 50.08L391.13 50.46L392.68 50.88L394.21 51.35L395.71 51.86L397.18 52.41L398.63 53.02L400.04 53.66L401.43 54.35L402.79 55.09L404.12 55.87L405.43 56.69L406.7 57.56L407.95 58.48L409.17 59.44L410.37 60.44L411.53 61.49L412.67 62.59L413.78 63.73L414.86 64.91L415.91 66.14L416.94 67.41L417.94 68.73L418.91 70.1L419.85 71.5L420.76 72.96L421.65 74.45L422.51 76L423.34 77.58L424.14 79.22L424.91 80.89L425.66 82.61L425.85 83.07L426.03 83.52L426.21 83.98L426.38 84.43L426.55 84.89L426.71 85.35L426.87 85.82L427.03 86.28L427.18 86.74L427.33 87.21L427.47 87.68L427.6 88.14L427.73 88.61L427.86 89.09L427.98 89.56L428.1 90.03L428.21 90.5L428.32 90.98L428.43 91.46L428.52 91.93L428.62 92.41L428.71 92.89L428.79 93.37L428.87 93.85L428.95 94.33L429.02 94.82L429.08 95.3L429.14 95.78L429.2 96.27L429.25 96.76L429.29 97.24L429.34 97.73L429.37 98.21L429.4 98.7L429.43 99.19L429.45 99.68L429.47 100.17L429.48 100.66L429.49 101.15L429.49 101.64L429.49 140.44L560.91 140.44L560.91 188.23L50.81 188.23L50.81 140.44L182.23 140.44ZM235.65 80.49L234.66 80.58L233.69 80.7L232.74 80.86L231.81 81.04L230.89 81.26L230 81.51L229.13 81.79L228.28 82.09L227.45 82.42L226.64 82.78L225.85 83.16L225.09 83.56L224.35 83.99L223.63 84.43L222.94 84.9L222.27 85.39L221.63 85.89L221.01 86.41L220.42 86.95L219.86 87.5L219.32 88.06L218.81 88.64L218.32 89.23L217.87 89.83L217.44 90.44L217.04 91.06L216.67 91.68L216.33 92.31L216.02 92.95L215.75 93.59L215.5 94.23L215.29 94.88L215.1 95.52L214.95 96.17L214.83 96.81L214.75 97.46L214.7 98.1L214.68 98.73L214.68 99.15L214.69 99.56L214.69 99.97L214.69 100.38L214.69 100.78L214.69 101.18L214.7 101.57L214.7 101.96L214.71 102.35L214.71 102.73L214.72 103.1L214.72 103.47L214.73 103.84L214.73 104.21L214.74 104.56L214.75 104.92L214.75 105.27L214.76 105.61L214.77 105.96L214.78 106.29L214.79 106.62L214.8 106.95L214.81 107.28L214.82 107.6L214.83 107.91L214.84 108.22L214.85 108.53L214.86 108.83L214.87 109.13L214.88 109.42L214.9 109.71L214.91 110L214.92 110.28L214.94 110.56L214.95 110.83L214.97 111.1L214.98 111.36L215 111.62L215.01 111.87L215.03 112.12L215.03 140.44L396.69 140.44L396.69 112.12L396.71 111.87L396.72 111.62L396.74 111.36L396.75 111.1L396.77 110.83L396.78 110.56L396.8 110.28L396.81 110L396.82 109.71L396.84 109.42L396.85 109.13L396.86 108.83L396.87 108.53L396.88 108.22L396.89 107.91L396.9 107.6L396.91 107.28L396.92 106.95L396.93 106.62L396.94 106.29L396.95 105.96L396.96 105.61L396.97 105.27L396.97 104.92L396.98 104.56L396.99 104.21L396.99 103.84L397 103.47L397 103.1L397.01 102.73L397.01 102.35L397.02 101.96L397.02 101.57L397.03 101.18L397.03 100.78L397.03 100.38L397.03 99.97L397.04 99.56L397.04 99.15L397.04 98.73L397.02 98.1L396.97 97.46L396.89 96.81L396.77 96.17L396.62 95.52L396.44 94.88L396.22 94.23L395.97 93.59L395.7 92.95L395.39 92.31L395.05 91.68L394.68 91.06L394.28 90.44L393.85 89.83L393.4 89.23L392.92 88.64L392.4 88.06L391.87 87.5L391.3 86.95L390.71 86.41L390.09 85.89L389.45 85.39L388.78 84.9L388.09 84.43L387.37 83.99L386.63 83.56L385.87 83.16L385.08 82.78L384.27 82.42L383.44 82.09L382.59 81.79L381.72 81.51L380.83 81.26L379.91 81.04L378.98 80.86L378.03 80.7L377.06 80.58L376.07 80.49L375.06 80.43L374.04 80.41L237.68 80.41L236.66 80.43L235.65 80.49Z" id="b1XGXkHf1O"></path></defs><g><g><g><use xlink:href="#a2zSwrHOtJ" opacity="1" class="trashbin-body" fill-opacity="1"></use><g><use xlink:href="#a2zSwrHOtJ" opacity="1" fill-opacity="0" stroke="#000000" stroke-width="0" stroke-opacity="1"></use></g></g><g><use xlink:href="#b1XGXkHf1O" opacity="1" class="trashbin-body" fill-opacity="1"></use><g><use xlink:href="#b1XGXkHf1O" opacity="1" fill-opacity="0" stroke="#ff0000" stroke-width="0" stroke-opacity="1"></use></g></g></g></g></svg>

<svg xmlns="http://www.w3.org/2000/svg" xmlns:xlink="http://www.w3.org/1999/xlink" preserveAspectRatio="xMidYMid slice" viewBox="0 0 703 651">
  <defs>
    <path d="M527.8 205.4l-1.3 16.8-1.3 16.4-1.2 16-1.2 15.7-1.2 15.3-1.1 15-1.1 14.5-1 14.2-1.1 13.8-1 13.4-1 13.1-1 12.7-.9 12.3-.9 12-.9 11.5-.8 11.2-.8 10.8-.8 10.5-.7 10-.7 9.8-.7 9.3-.6 9-.6 8.6-.6 8.2-.6 7.8-.5 7.5-.5 7-.4 6.8-.4 6.3-.4 6-.4 5.6-.3 5.3-.4 4.8-.2 4.5-.3 4.1-.2 3.7-.1 3.4-.2 3-.1 2.6-.1 2.4-.2 2.4-.2 2.3-.2 2.2-.3 2.1-.3 2.2-.4 2-.4 2-.4 2-.5 1.8-.5 1.9-.5 1.7-.6 1.7-.6 1.7-.7 1.6-.7 1.5-.8 1.5-.7 1.4-.8 1.3-.9 1.3-.9 1.3-1 1.2-.9 1-1 1.2-1 1-1.1 1-1.2.8-1.1.9-1.2.7-1.3.8-1.3.6-1.3.6-1.3.6-1.4.4-1.5.5-1.4.4-1.6.3-1.5.2-1.6.2-1.6.1H144.8l-1.6-.3-1.5-.2-1.5-.4-1.5-.3-1.4-.5-1.4-.4-1.4-.6-1.3-.6-1.3-.6-1.2-.8-1.2-.8-1.2-.8-1.1-.9-1.1-1-1-1-1-1-1-1.1-1-1.2-.9-1.3-.8-1.3-.9-1.3-.7-1.4-.8-1.5-.7-1.5-.6-1.6-.7-1.7-.5-1.7-.6-1.8-.5-1.8-.5-1.8-.4-2-.4-2-.3-2-.4-2.2-.2-2.1-.3-2.3-.2-2.2-.1-2.4-.2-2.4v-2.6l-.2-3-.2-3.4-.2-3.7-.3-4.1-.2-4.5-.3-4.9-.4-5.2-.3-5.6-.4-6-.5-6.3-.4-6.7-.5-7.1-.5-7.5-.6-7.8-.6-8.2-.6-8.6-.6-9-.7-9.3-.7-9.7-.7-10.1-.8-10.5-.8-10.8-.8-11.2-.9-11.6-.9-11.9-.9-12.3-1-12.7-1-13-1-13.5-1-13.8-1-14.2-1.2-14.5-1.1-15-1.2-15.3-1.2-15.7-1.2-16-1.3-16.4-1.3-16.8-1.3-17.2h446.5l-1.3 17.2zM201.2 550h31l-14.5-314.4h-30.9L201.2 550zm182.8 0h30.9l14.4-314.4h-31L384 550zm-90.4 0h33V235.6h-33V550z" id="a"/>
    <path d="M182.2 140.4V99.2l.1-.5v-1l.1-.5v-.4l.1-.5v-.5l.1-.5.1-.5v-.5l.2-.5v-.4l.1-.5.1-.5.1-.5v-.4l.2-.5.1-.5.1-.5.1-.4.2-.5v-.5l.2-.5.2-.4.1-.5.1-.5.2-.4.2-.5.1-.5.2-.4.1-.5.2-.4.2-.5.2-.4.2-.5.7-1.7.8-1.7.8-1.6.8-1.6.9-1.5.9-1.5.9-1.5 1-1.4.9-1.4 1-1.3 1-1.3 1-1.2 1.1-1.2 1.2-1.1 1-1.1 1.3-1 1.2-1 1.2-1 1.2-1 1.3-.8 1.3-.8 1.3-.8 1.4-.8 1.4-.6 1.4-.7 1.4-.6 1.5-.5 1.5-.5 1.5-.5 1.6-.4 1.6-.4 1.6-.4 1.6-.2 1.7-.3 1.7-.2 1.7-.1 1.8-.1 1.7-.1h5.9l2.2.1h2.3l2.3.1h2.4l2.5.1h5.1l2.6.1h2.7l2.7.1h5.6l3 .1h8.9l3.2.1H335.5l3-.1h8.5l2.8-.1h2.6l2.7-.1h5l2.5-.1h2.4l2.3-.1h2.3l2.3-.1 2.1-.1h5.5l1.7.2 1.7.1 1.7.2 1.7.3 1.6.3 1.6.3 1.6.4 1.6.4 1.5.5 1.5.5 1.5.5 1.4.6 1.4.7 1.4.6 1.4.8 1.3.8 1.3.8 1.3.9 1.3.9 1.2 1 1.2 1 1.1 1 1.2 1 1 1.2L415 65l1 1.2 1 1.3 1 1.3 1 1.4 1 1.4.9 1.5.8 1.5 1 1.5.7 1.6.8 1.6.8 1.7.8 1.7.2.5.1.4.2.5.2.4.2.5.1.4.2.5.1.5.2.4.1.5.2.5.1.4.1.5.2.5v.5l.2.4.1.5.1.5.1.5.1.4.1.5.1.5v.5l.2.4v.5l.1.5v.5l.1.5.1.5v.9l.1.5v.5l.1.5V140.4H561v47.8H51v-47.8h131.3zm53.5-60l-1 .2-1 .1-1 .2-.9.1-1 .3-.8.2-.9.3-.8.3-.9.3-.8.4-.8.4-.7.4-.8.4-.7.4-.7.5-.6.5-.7.5-.6.5-.6.5-.5.6-.6.6-.5.5-.5.6-.4.6-.5.6-.4.7-.3.6-.4.6-.3.7-.3.6-.2.6-.2.7-.2.6-.2.7v.6l-.2.7V106.6l.1.4v2.4l.1.3v1.7l.1.2v28.8h181.7v-29.8l.1-.3v-2.4l.1-.3V103.8l.1-.3V97.5l-.1-.7-.1-.6-.2-.7-.2-.6-.2-.7-.2-.6-.3-.6-.3-.7-.3-.6-.4-.6-.4-.7-.4-.6-.5-.6-.5-.6-.5-.5-.5-.6-.6-.5-.6-.6-.6-.5-.7-.5-.6-.5-.7-.5-.7-.4-.8-.4-.7-.4-.8-.4-.8-.4-.9-.3-.8-.3-.9-.3-.9-.2-.9-.3-1-.1-.9-.2-1-.1-1-.1H235.8z" id="b"/>
  </defs>
  <use xlink:href="#a" class="trashbin-body"/>
  <use xlink:href="#a" fill-opacity="0" stroke="#000" stroke-width="0"/>
  <g>
    <use xlink:href="#b" class="trashbin-body"/>
    <use xlink:href="#b" fill-opacity="0" stroke="red" stroke-width="0"/>
  </g>
</svg>
